assets/svg/coin_icons/Firo.svg

<svg fill="none" height="24" viewBox="0 0 24 24" width="24" xmlns="http://www.w3.org/2000/svg"><circle cx="12" cy="12" fill="#fff" r="12"/><g fill="#9b1c2e"><path d="m7.04425 17.2562c.27745 0 .53949-.1541.66281-.4007l1.76491-3.3526h-2.72829c-.41619 0-.74759-.3391-.74759-.7476v-1.5029c0-.4162.33911-.7476.74759-.7476h4.31592l3.3526-6.35066c.131-.24663.3854-.40077.6628-.40077h5.6493c-2.1888-2.31214-5.2794-3.75337-8.7167-3.75337-6.62808 0-12.0076 5.37186-12.0076 12.0077 0 1.8805.431596 3.6686 1.21001 5.2563h5.83424z"/><path d="m16.9559 6.74379c-.2775 0-.5395.15414-.6628.40077l-1.7649 3.35264h2.7283c.4162 0 .7476.3391.7476.7476v1.5028c0 .4162-.3391.7476-.7476.7476h-4.316l-3.35254 6.3507c-.13102.2466-.38536.4008-.66281.4008h-5.64927c2.1888 2.3121 5.27933 3.7533 8.71672 3.7533 6.628 0 12.0076-5.3718 12.0076-12.0077 0-1.8805-.4316-3.66855-1.2101-5.25622h-5.8342z"/></g></svg>

<svg width="24" height="24" viewBox="0 0 24 24" fill="none" xmlns="http://www.w3.org/2000/svg">
<circle cx="12" cy="12" r="12" fill="white"/>
<path d="M7.04425 17.2562C7.3217 17.2562 7.58374 17.1021 7.70706 16.8555L9.47197 13.5029H6.74368C6.32749 13.5029 5.99609 13.1638 5.99609 12.7553V11.2524C5.99609 10.8362 6.3352 10.5048 6.74368 10.5048H11.0596L14.4122 4.15414C14.5432 3.90751 14.7976 3.75337 15.075 3.75337H20.7243C18.5355 1.44123 15.4449 0 12.0076 0C5.37952 0 0 5.37186 0 12.0077C0 13.8882 0.431596 15.6763 1.21001 17.264H7.04425V17.2562Z" fill="#9B1C2E"/>
<path d="M16.9559 6.74379C16.6784 6.74379 16.4164 6.89793 16.2931 7.14456L14.5282 10.4972H17.2565C17.6727 10.4972 18.0041 10.8363 18.0041 11.2448V12.7476C18.0041 13.1638 17.665 13.4952 17.2565 13.4952H12.9405L9.58796 19.8459C9.45694 20.0925 9.2026 20.2467 8.92515 20.2467H3.27588C5.46468 22.5588 8.55521 24 11.9926 24C18.6206 24 24.0002 18.6282 24.0002 11.9923C24.0002 10.1118 23.5686 8.32375 22.7901 6.73608H16.9559V6.74379Z" fill="#9B1C2E"/>
</svg>
